build/img/icon-close_small.svg

<svg width="24" height="24" viewBox="0 0 24 24" fill="none" xmlns="http://www.w3.org/2000/svg">
<path fill-rule="evenodd" clip-rule="evenodd" d="M6.70711 5.29289L6 4.58579L4.58579 6L5.29289 6.70711L10.5858 12L5.29289 17.2929L4.58579 18L6 19.4142L6.70711 18.7071L12 13.4142L17.2929 18.7071L18 19.4142L19.4142 18L18.7071 17.2929L13.4142 12L18.7071 6.70711L19.4142 6L18 4.58579L17.2929 5.29289L12 10.5858L6.70711 5.29289Z" fill="#151515"/>
</svg>

<svg width="24" height="24" viewBox="0 0 24 24" fill="none" xmlns="http://www.w3.org/2000/svg"><path fill-rule="evenodd" clip-rule="evenodd" d="M6.707 5.293L6 4.586 4.586 6l.707.707L10.586 12l-5.293 5.293-.707.707L6 19.414l.707-.707L12 13.414l5.293 5.293.707.707L19.414 18l-.707-.707L13.414 12l5.293-5.293.707-.707L18 4.586l-.707.707L12 10.586 6.707 5.293z" fill="#151515"/></svg>
